src/lib/packages/icons/src/assets/filled/speedometer.svg

<svg xmlns="http://www.w3.org/2000/svg" width="24" height="24" fill="none"><path fill="currentColor" d="M12 2C6.48 2 2 6.48 2 12s4.48 10 10 10 10-4.48 10-10S17.52 2 12 2ZM7.46 14.62c.21.36.09.81-.27 1.03-.12.07-.25.1-.38.1-.26 0-.51-.13-.65-.37A6.713 6.713 0 0 1 5.25 12c0-3.72 3.03-6.75 6.75-6.75.49 0 .96.05 1.46.16.4.08.66.48.57.89-.08.4-.48.66-.89.57C9.81 6.16 6.75 8.72 6.75 12c0 .95.24 1.83.71 2.62Zm8.08-5.75c-.72 1.33-2.06 3.77-2.48 4.19-.59.59-1.53.59-2.12 0a1.49 1.49 0 0 1 0-2.12c.42-.42 2.86-1.76 4.19-2.48.27-.14.55.14.41.41Zm2.3 6.51c-.14.24-.39.37-.65.37-.13 0-.26-.03-.38-.1a.754.754 0 0 1-.27-1.03c.47-.79.71-1.67.71-2.62 0-.38-.04-.76-.12-1.14-.09-.41.17-.81.57-.89.41-.09.81.17.89.57a6.713 6.713 0 0 1-.75 4.84Z"/></svg>

<svg width="24" height="24" viewBox="0 0 24 24" fill="none" xmlns="http://www.w3.org/2000/svg">
<path d="M12 2C6.48 2 2 6.48 2 12C2 17.52 6.48 22 12 22C17.52 22 22 17.52 22 12C22 6.48 17.52 2 12 2ZM7.45999 14.62C7.66999 14.98 7.55 15.43 7.19 15.65C7.07 15.72 6.94 15.75 6.81 15.75C6.55 15.75 6.3 15.62 6.16 15.38C5.57 14.37 5.25 13.2 5.25 12C5.25 8.28 8.28 5.25 12 5.25C12.49 5.25 12.96 5.3 13.46 5.41C13.86 5.49 14.12 5.88999 14.03 6.29999C13.95 6.69999 13.55 6.96 13.14 6.87C9.81001 6.16 6.75 8.72 6.75 12C6.75 12.95 6.98999 13.83 7.45999 14.62ZM15.54 8.87C14.82 10.2 13.48 12.64 13.06 13.06C12.47 13.65 11.53 13.65 10.94 13.06C10.35 12.47 10.35 11.53 10.94 10.94C11.36 10.52 13.8 9.17999 15.13 8.45999C15.4 8.31999 15.68 8.6 15.54 8.87ZM17.84 15.38C17.7 15.62 17.45 15.75 17.19 15.75C17.06 15.75 16.93 15.72 16.81 15.65C16.45 15.43 16.33 14.98 16.54 14.62C17.01 13.83 17.25 12.95 17.25 12C17.25 11.62 17.21 11.24 17.13 10.86C17.04 10.45 17.3 10.05 17.7 9.97C18.11 9.88 18.51 10.14 18.59 10.54C18.7 11.03 18.75 11.51 18.75 12C18.75 13.2 18.43 14.37 17.84 15.38Z" fill="currentColor"/>
</svg>
